packages/gestalt/src/icons/menu.svg

<svg width="24" height="24" xmlns="http://www.w3.org/2000/svg"><path fill="#B5B5B5" d="M21.5 9.5c1.38 0 2.5 1.13 2.5 2.5a2.5 2.5 0 0 1-2.5 2.5h-19C1.13 14.5 0 13.38 0 12c0-1.37 1.13-2.5 2.5-2.5h19zm-19-3C1.13 6.5 0 5.38 0 4c0-1.37 1.13-2.5 2.5-2.5h19C22.88 1.5 24 2.63 24 4a2.5 2.5 0 0 1-2.5 2.5h-19zm19 11c1.38 0 2.5 1.13 2.5 2.5a2.5 2.5 0 0 1-2.5 2.5h-19C1.13 22.5 0 21.38 0 20c0-1.37 1.13-2.5 2.5-2.5h19z"/></svg>

<svg width="24" height="24" viewBox="0 0 24 24" xmlns="http://www.w3.org/2000/svg"><path fill="#aeaeae" d="M21.50,9.50 C22.88,9.50 24.00,10.63 24.00,12.00 C24.00,13.38 22.88,14.50 21.50,14.50 L2.50,14.50 C1.13,14.50 0.00,13.38 0.00,12.00 C0.00,10.63 1.13,9.50 2.50,9.50 L21.50,9.50 Z M2.50,6.50 C1.13,6.50 0.00,5.38 0.00,4.00 C0.00,2.63 1.13,1.50 2.50,1.50 L21.50,1.50 C22.88,1.50 24.00,2.63 24.00,4.00 C24.00,5.38 22.88,6.50 21.50,6.50 L2.50,6.50 Z M21.50,17.50 C22.88,17.50 24.00,18.63 24.00,20.00 C24.00,21.38 22.88,22.50 21.50,22.50 L2.50,22.50 C1.13,22.50 0.00,21.38 0.00,20.00 C0.00,18.63 1.13,17.50 2.50,17.50 L21.50,17.50 Z"/></svg>
